!!!COM: Bach, Johann Sebastian
!!!OPR: Joh. Seb. Bachs vierstimmige Choralges‰nge
!!!XEN: Four-part Chorales
!!!OTL: 27. Christ, unser Herr, zum Jordan kam
!!!SCT: BWV 280
!!!SCA: Thematisch-systematisches Verzeichnis der musikalischen Werke Johann Sebastian Bach: Bach-Werke-Verzeichnis (Schmieder)
!!!YOR: Bach Gesellschaft Edition xxxix
!!!ENC: Steven Rasmussen
!!!CDT: 1685/3//-1750/7/28/
!!!OCY: Deutschland
!!!YEC: Copyright (c) 1994, 2000 Center for Computer Assisted Research in the Humanities
!!!YEM: Rights to all derivative editions reserved
!!!YEN: United States of America
**kern	**kern	**kern	**kern	**silbe
*I:[BASSO]	*I:[TENORE]	*I:[ALTO]	*I:[SOPRANO]	*I:[SOPRANO]
*>[A,A,B]	*>[A,A,B]	*>[A,A,B]	*>[A,A,B]	*
*>A	*>A	*>A	*>A	*
*clefF4	*clefGv2	*clefG2	*clefG2	*
*k[]	*k[]	*k[]	*k[]	*
*a:	*a:	*a:	*a:	*
*M4/4	*M4/4	*M4/4	*M4/4	*
4D	8FL	4A	8dL	Christ,von
.	8GJ	.	8eJ	.
=1	=1	=1	=1	=1
4D	8AL	4d	4f	un-Sankt
.	8BJ	.	.	.
4C	4c	4e	4g	-serJo-
4F	4c	4f	4a	Herr,-hann's
4C	8cL	4e	4g	zumdie
.	8BJ	.	.	.
=2	=2	=2	=2	=2
8CL	4A	4e	4cc	Jor-Tau-
8DJ	.	.	.	.
4E	4G#	4e	8bL	-dan-fe
.	.	.	8aJ	.
4AA;	4c;	4e;	4a;	kamnahm,
4E	4B	4e	4g	nachsein
=3	=3	=3	=3	=3
4A	4A	4e	4cc	sei-Werk
4G	8BL	4e	4b	-nesund
.	8c#J	.	.	.
4F	4d	8fL	4a	Va-Amt
.	.	8eJ	.	.
8BBL	8DL	4d	4g	-terszu
8C#J	8EJ	.	.	.
=4	=4	=4	=4	=4
4D	8FL	8A	4f	Wil-'rf√ºl-
.	8GJ	4d	.	.
4AA	4A	.	4e	.
.	.	8c#	.	.
4D;	4F;	4A;	4d;	-len,-len;
=:|!	=:|!	=:|!	=:|!	=:|!
*>B	*>B	*>B	*>B	*
8DL	8FL	4A	4d	da
8CJ	8EJ	.	.	.
=5	=5	=5	=5	=5
8BBL	4D	4d	4g	wollt'
8AAJ	.	.	.	.
4GG	4G	8cL	4g	er
.	.	8BJ	.	.
4C	4G	8cL	4e	stif-
.	.	8dJ	.	.
8BBL	4c	4e	4a	-ten
8AAJ	.	.	.	.
=6	=6	=6	=6	=6
4E	8BL	4e	4a	uns
.	8AJ	.	.	.
4EE	4B	4e	4g#	ein
4AA;	4c;	4e;	4a;	Bad,
8AL	4c	4e	4a	zu
8GJ	.	.	.	.
=7	=7	=7	=7	=7
4F#	4c	4a	4dd	wa-
4G	4B	4g	4dd	-schen
4C	8cL	4g	8eeL	uns
.	8BJ	.	8ddJ	.
8FnL	4A	8aL	4cc	von
8EJ	.	8gJ	.	.
=8	=8	=8	=8	=8
4D	8BL	4f	8ddL	S√ºn-
.	8AJ	.	8ccJ	.
4E	4G#	8BL	4b	.
.	.	16cL	.	.
.	.	16dJJ	.	.
4AA;	4E;	4c;	4a;	-den,
4E	4G#	4e	4b	er-
=9	=9	=9	=9	=9
4A	8AL	4e	4cc	-s√§u-
.	8GJ	.	.	.
8DL	8FL	4d	4b	-fen
8EJ	8GJ	.	.	.
4F	8AL	8cL	4a	auch
.	8BJ	8dJ	.	.
8EL	8c#L	4e	4g	den
8DJ	8dJ	.	.	.
=10	=10	=10	=10	=10
4C#	4e	4A	8aL	bit-
.	.	.	8gJ	.
4D	4A	4d	4f	-tern
4AA;	4A;	4c#;	4e;	Tod
8DL	8FL	4A	8dL	durch
8CnJ	8EJ	.	8eJ	.
=11	=11	=11	=11	=11
8BB-L	8DL	4d	4f	sein
8AAJ	8FJ	.	.	.
4GG	4B-	4e	4g	selb's
4FF	4A	8eL	8aL	Blut
.	.	8c#J	8gJ	.
8BB-L	4B-	4d	4f	und
8AAJ	.	.	.	.
=12	=12	=12	=12	=12
4GG	4B-	8eL	8gL	Wun-
.	.	8dJ	8fJ	.
4AA	8EL	4c#	4e	.
.	16FL	.	.	.
.	16GJJ	.	.	.
4DD;	4F;	4A;	4d;	-den.
4F#	4D	4a	4dd	Es
=13	=13	=13	=13	=13
8GL	8BL	4g	4dd	galt
8AJ	8cJ	.	.	.
8BL	8dL	4g	4dd	ein
8GJ	8BJ	.	.	.
4C	8cL	4g	4ee	neu-
.	8BJ	.	.	.
4F	4A	8aL	4dd	-es
.	.	8dJ	.	.
=14	=14	=14	=14	=14
8EL	4A	4.e	4cc	Le-
8DJ	.	.	.	.
4E	4G#	.	4b	.
.	.	8d	.	.
4AA;	4E;	4c#;	4a;	-ben.
==|!	==|!	==|!	==|!	==|!
*-	*-	*-	*-	*-
!!!RWG: Key is interpreted using the Humdrum key tool.
!!!END: 1994/05/11
!!!EMD: Converted from MuseData to Humdrum Dec 19, 2000, by Andreas Kornstaedt using muse2kern.
!!!EED: Craig Stuart Sapp
!!!EEV: 2024/03/31
!!!ONB: Some non-unicode characters
